src/assets/sponsors/lens.svg

<svg fill="none" height="160" viewBox="0 0 54 80" width="108" xmlns="http://www.w3.org/2000/svg" xmlns:xlink="http://www.w3.org/1999/xlink"><clipPath id="a"><path d="m0 6h54v73.193h-54z"/></clipPath><g clip-path="url(#a)" fill="#abfe2c"><path d="m.64209 78.8548v-16.8621h2.02338v15.0316h8.80323v1.8305z"/><path d="m13.5249 78.8548v-16.8621h10.3826v1.8305h-8.3592v5.6407h6.7743v1.8305h-6.7743v5.7336h8.4793v1.8305z"/><path d="m26.0015 78.8548v-16.8621h4.2906l5.8772 15.5866h.6769v-15.5866h2.0016v16.8621h-4.2924l-5.8537-15.6066h-.7005v15.6084z"/><path d="m47.408 79.1912c-1.1255.0189-2.2421-.2026-3.2752-.6496-.938-.4121-1.7309-1.096-2.2763-1.9633-.5532-.8758-.8304-1.9718-.8316-3.288v-.5058h2.0016v.5058c0 1.3975.4094 2.437 1.2282 3.1188.8188.6817 1.8699 1.0256 3.1533 1.0317 1.3162 0 2.3194-.2972 3.0096-.8916.3309-.2707.5961-.613.7758-1.0009.1796-.388.269-.8116.2614-1.239.029-.5386-.1385-1.0694-.4713-1.4939-.358-.4041-.808-.7161-1.3119-.9098-.6381-.2575-1.2959-.4632-1.967-.615l-1.2519-.313c-.8961-.2264-1.7677-.5409-2.602-.9389-.7041-.327-1.3134-.828-1.7704-1.4557-.4258-.6065-.6387-1.3816-.6387-2.3254-.022-.8726.2266-1.7306.7114-2.4565.5-.7119 1.1951-1.2642 2.0016-1.5903.9441-.3828 1.9565-.5685 2.975-.5459 1.0535-.0168 2.0991.1839 3.0715.5896.8597.3599 1.5994.9569 2.1326 1.7213.5228.7642.7836 1.7238.7824 2.8786v1.0117h-2.0016v-1.0117c0-.8188-.1722-1.4769-.5167-1.9742-.3518-.5037-.847-.8898-1.4211-1.1082-.657-.2521-1.3562-.3756-2.0598-.3639-1.1075 0-1.9991.2426-2.6748.7278-.6757.4853-1.0129 1.1797-1.0117 2.0835-.0237.5167.129 1.0262.4331 1.4447.3273.4015.7503.7143 1.23.9098.6141.2612 1.2505.4664 1.9015.6132l1.2537.3148c.9083.1847 1.7928.4716 2.6366.8552.7352.3258 1.377.8307 1.8669 1.4684.4658.6187.6987 1.426.6987 2.4219.0207.9223-.2394 1.8292-.746 2.6002-.5261.7614-1.2565 1.3587-2.1071 1.7232-1.0071.4312-2.0945.6427-3.1898.6204z"/><path d="m27.065 39.9117c-.5349 0-13.2302-.111-22.94139-9.8258-.20561-.2038-.40577-.4112-.60228-.6186-2.0343-2.1435-2.998687-4.6946-2.794893-7.3748.181959-2.3655 1.273713-4.6564 3.066013-6.4541 1.79229-1.7978 4.09044-2.8859 6.45405-3.066 2.4765-.182 4.8438.6223 6.8836 2.3509.2201-2.6639 1.3192-4.9129 3.2043-6.52872 1.7995-1.54484 4.185-2.39458 6.7324-2.39458 2.5475 0 4.933.84974 6.7325 2.39458 1.8833 1.61762 2.9842 3.86482 3.2043 6.52872 2.0398-1.7286 4.4071-2.5475 6.8835-2.3509 2.3655.1819 4.6564 1.2737 6.4523 3.066s2.8877 4.0904 3.066 6.4541c.2056 2.6802-.7606 5.2313-2.7931 7.3784-.1965.2074-.3966.4149-.6022.6187-9.713 9.7111-22.4083 9.8221-22.9451 9.8221zm-16.1161-25.3505c-2.2017 0-4.26876 1.0244-5.73899 2.4928-2.64205 2.6439-3.84298 7.2256-.23291 11.0413.18439.1953.37241.3888.56408.5804 9.13072 9.1289 21.40382 9.2345 21.52572 9.2345.122 0 12.4206-.1274 21.5276-9.2345.1929-.1928.3809-.3863.5641-.5804 3.6101-3.8211 2.4091-8.3974-.2329-11.0413-2.6421-2.6439-7.2256-3.8448-11.0468-.2329-.1953.1832-.3887.3712-.5804.5641-.1474.1474-.2911.2984-.4331.4494l-1.8978 2.0125.0746-2.7622c0-.211.0127-.4203.0127-.6332 0-.2729 0-.5458-.0109-.8097-.1455-5.2495-4.2342-7.64227-7.9734-7.64227-3.7393 0-7.8243 2.39097-7.9717 7.64227 0 .2675-.0109.5459-.0109.8097 0 .2075 0 .4113.0109.6169l.0747 2.7785-1.8997-2.0016c-.1437-.1528-.2893-.3057-.4385-.4567-.1929-.1929-.3864-.3809-.5805-.5641-1.7013-1.6139-3.5482-2.2635-5.3059-2.2635z"/><path d="m25.7818 29.3107h-1.4557c0-2.1672-2.1107-3.9322-4.7018-3.9322s-4.7018 1.765-4.7018 3.9322h-1.4557c0-2.9714 2.7621-5.3878 6.1575-5.3878 3.3953 0 6.1575 2.4164 6.1575 5.3878z"/><path d="m40.5821 29.2507h-1.4557c0-2.1671-2.1089-3.9303-4.7018-3.9303s-4.7018 1.7632-4.7018 3.9303h-1.4557c0-2.9695 2.7621-5.386 6.1575-5.386 3.3953 0 6.1575 2.4165 6.1575 5.386z"/><path d="m21.2999 29.3415c1.1567 0 2.0944-.9376 2.0944-2.0943s-.9377-2.0944-2.0944-2.0944-2.0943.9377-2.0943 2.0944.9376 2.0943 2.0943 2.0943z"/><path d="m36.0026 29.3415c1.1566 0 2.0943-.9376 2.0943-2.0943s-.9377-2.0944-2.0943-2.0944c-1.1567 0-2.0944.9377-2.0944 2.0944s.9377 2.0943 2.0944 2.0943z"/><path d="m27.0593 34.662c-1.7158 0-3.3062-.8825-4.0486-2.2472l1.2738-.6951c.4931.9098 1.5794 1.4866 2.7712 1.4866s2.2799-.5841 2.7712-1.4866l1.2737.6951c-.7351 1.3647-2.3199 2.2472-4.0413 2.2472z"/><path d="m53.1464 54.8398c-3.6476 1.708-7.7592 2.156-11.6891 1.2737-3.2528-.7212-6.239-2.3378-8.6212-4.6672 1.5081.625 3.1258.9429 4.7582.9353 2.8227.0006 5.5755-.877 7.8771-2.5111l-1.1682-1.6267c-3.1497 2.2672-7.4822 2.8131-10.9012 1.2683-3.3735-1.5194-5.2768-4.771-5.3987-9.1799v-1.4211h-2.0016v.2511 1.1591c-.1164 4.4143-2.0234 7.6696-5.4005 9.1908-3.419 1.5412-7.7587 1.0026-10.90118-1.2737l-1.16636 1.6267c2.30004 1.6347 5.05154 2.5135 7.87334 2.5146 1.6325.008 3.2502-.3099 4.7583-.9352-2.3815 2.3293-5.3672 3.946-8.6194 4.6672-3.92989.8824-8.04153.4344-11.689093-1.2737l-.85338903 1.8105c2.67874203 1.2574 5.60202203 1.9079 8.56117203 1.9051 1.48681.0005 2.96911-.1636 4.41981-.4895 4.4514-.9882 8.4279-3.4762 11.2632-7.0472l.0128-.0164c.6653-.8728 1.2494-1.8047 1.745-2.784v10.3007h2.0015v-10.2861c.4949.9744 1.0771 1.902 1.7396 2.7712l.0127.0164c2.835 3.5705 6.8108 6.0585 11.2614 7.0473 1.4507.3258 2.933.49 4.4198.4894 2.9598.0028 5.8836-.6477 8.563-1.9051z"/></g></svg>

<svg width="108" height="160" viewBox="0 0 54 80" fill="none" xmlns="http://www.w3.org/2000/svg"><g clip-path="url(#clip0_874_1376)"><path d="M0.64209 78.8548V61.9927H2.66547V77.0243H11.4687V78.8548H0.64209Z" fill="#ABFE2C"></path><path d="M13.5249 78.8548V61.9927H23.9075V63.8232H15.5483V69.4639H22.3226V71.2944H15.5483V77.028H24.0276V78.8585L13.5249 78.8548Z" fill="#ABFE2C"></path><path d="M26.0015 78.8548V61.9927H30.2921L36.1693 77.5793H36.8462V61.9927H38.8478V78.8548H34.5554L28.7017 63.2482H28.0012V78.8566L26.0015 78.8548Z" fill="#ABFE2C"></path><path d="M47.408 79.1912C46.2825 79.2101 45.1659 78.9886 44.1328 78.5416C43.1948 78.1295 42.4019 77.4456 41.8565 76.5783C41.3033 75.7025 41.0261 74.6065 41.0249 73.2903V72.7845H43.0265V73.2903C43.0265 74.6878 43.4359 75.7273 44.2547 76.4091C45.0735 77.0908 46.1246 77.4347 47.408 77.4408C48.7242 77.4408 49.7274 77.1436 50.4176 76.5492C50.7485 76.2785 51.0137 75.9362 51.1934 75.5483C51.373 75.1603 51.4624 74.7367 51.4548 74.3093C51.4838 73.7707 51.3163 73.2399 50.9835 72.8154C50.6255 72.4113 50.1755 72.0993 49.6716 71.9056C49.0335 71.6481 48.3757 71.4424 47.7046 71.2906L46.4527 70.9776C45.5566 70.7512 44.685 70.4367 43.8507 70.0387C43.1466 69.7117 42.5373 69.2107 42.0803 68.583C41.6545 67.9765 41.4416 67.2014 41.4416 66.2576C41.4196 65.385 41.6682 64.527 42.153 63.8011C42.653 63.0892 43.3481 62.5369 44.1546 62.2108C45.0987 61.828 46.1111 61.6423 47.1296 61.6649C48.1831 61.6481 49.2287 61.8488 50.2011 62.2545C51.0608 62.6144 51.8005 63.2114 52.3337 63.9758C52.8565 64.74 53.1173 65.6996 53.1161 66.8544V67.8661H51.1145V66.8544C51.1145 66.0356 50.9423 65.3775 50.5978 64.8802C50.246 64.3765 49.7508 63.9904 49.1767 63.772C48.5197 63.5199 47.8205 63.3964 47.1169 63.4081C46.0094 63.4081 45.1178 63.6507 44.4421 64.1359C43.7664 64.6212 43.4292 65.3156 43.4304 66.2194C43.4067 66.7361 43.5594 67.2456 43.8635 67.6641C44.1908 68.0656 44.6138 68.3784 45.0935 68.5739C45.7076 68.8351 46.344 69.0403 46.995 69.1871L48.2487 69.5019C49.157 69.6866 50.0415 69.9735 50.8853 70.3571C51.6205 70.6829 52.2623 71.1878 52.7522 71.8255C53.218 72.4442 53.4509 73.2515 53.4509 74.2474C53.4716 75.1697 53.2115 76.0766 52.7049 76.8476C52.1788 77.609 51.4484 78.2063 50.5978 78.5708C49.5907 79.002 48.5033 79.2135 47.408 79.1912Z" fill="#ABFE2C"></path><path d="M27.065 39.9117C26.5301 39.9117 13.8348 39.8007 4.12361 30.0859C3.918 29.8821 3.71784 29.6747 3.52133 29.4673C1.48703 27.3238 0.522643 24.7727 0.726437 22.0925C0.908396 19.727 2.00015 17.4361 3.79245 15.6384C5.58474 13.8406 7.88289 12.7525 10.2465 12.5724C12.723 12.3904 15.0903 13.1947 17.1301 14.9233C17.3502 12.2594 18.4493 10.0104 20.3344 8.39458C22.1339 6.84974 24.5194 6 27.0668 6C29.6143 6 31.9998 6.84974 33.7993 8.39458C35.6826 10.0122 36.7835 12.2594 37.0036 14.9233C39.0434 13.1947 41.4107 12.3758 43.8871 12.5724C46.2526 12.7543 48.5435 13.8461 50.3394 15.6384C52.1353 17.4307 53.2271 19.7288 53.4054 22.0925C53.611 24.7727 52.6448 27.3238 50.6123 29.4709C50.4158 29.6783 50.2157 29.8858 50.0101 30.0896C40.2971 39.8007 27.6018 39.9117 27.065 39.9117ZM10.9489 14.5612C8.7472 14.5612 6.68014 15.5856 5.20991 17.054C2.56786 19.6979 1.36693 24.2796 4.977 28.0953C5.16139 28.2906 5.34941 28.4841 5.54108 28.6757C14.6718 37.8046 26.9449 37.9102 27.0668 37.9102C27.1888 37.9102 39.4874 37.7828 48.5944 28.6757C48.7873 28.4829 48.9753 28.2894 49.1585 28.0953C52.7686 24.2742 51.5676 19.6979 48.9256 17.054C46.2835 14.4101 41.7 13.2092 37.8788 16.8211C37.6835 17.0043 37.4901 17.1923 37.2984 17.3852C37.151 17.5326 37.0073 17.6836 36.8653 17.8346L34.9675 19.8471L35.0421 17.0849C35.0421 16.8739 35.0548 16.6646 35.0548 16.4517C35.0548 16.1788 35.0548 15.9059 35.0439 15.642C34.8984 10.3925 30.8097 7.99973 27.0705 7.99973C23.3312 7.99973 19.2462 10.3907 19.0988 15.642C19.0988 15.9095 19.0879 16.1879 19.0879 16.4517C19.0879 16.6592 19.0879 16.863 19.0988 17.0686L19.1735 19.8471L17.2738 17.8455C17.1301 17.6927 16.9845 17.5398 16.8353 17.3888C16.6424 17.1959 16.4489 17.0079 16.2548 16.8247C14.5535 15.2108 12.7066 14.5612 10.9489 14.5612Z" fill="#ABFE2C"></path><path d="M25.7818 29.3107H24.3261C24.3261 27.1435 22.2154 25.3785 19.6243 25.3785C17.0332 25.3785 14.9225 27.1435 14.9225 29.3107H13.4668C13.4668 26.3393 16.2289 23.9229 19.6243 23.9229C23.0196 23.9229 25.7818 26.3393 25.7818 29.3107Z" fill="#ABFE2C"></path><path d="M40.5821 29.2507H39.1264C39.1264 27.0836 37.0175 25.3204 34.4246 25.3204C31.8317 25.3204 29.7228 27.0836 29.7228 29.2507H28.2671C28.2671 26.2812 31.0292 23.8647 34.4246 23.8647C37.8199 23.8647 40.5821 26.2812 40.5821 29.2507Z" fill="#ABFE2C"></path><path d="M21.2999 29.3415C22.4566 29.3415 23.3943 28.4039 23.3943 27.2472C23.3943 26.0905 22.4566 25.1528 21.2999 25.1528C20.1432 25.1528 19.2056 26.0905 19.2056 27.2472C19.2056 28.4039 20.1432 29.3415 21.2999 29.3415Z" fill="#ABFE2C"></path><path d="M36.0026 29.3415C37.1592 29.3415 38.0969 28.4039 38.0969 27.2472C38.0969 26.0905 37.1592 25.1528 36.0026 25.1528C34.8459 25.1528 33.9082 26.0905 33.9082 27.2472C33.9082 28.4039 34.8459 29.3415 36.0026 29.3415Z" fill="#ABFE2C"></path><path d="M27.0593 34.662C25.3435 34.662 23.7531 33.7795 23.0107 32.4148L24.2845 31.7197C24.7776 32.6295 25.8639 33.2063 27.0557 33.2063C28.2475 33.2063 29.3356 32.6222 29.8269 31.7197L31.1006 32.4148C30.3655 33.7795 28.7807 34.662 27.0593 34.662Z" fill="#ABFE2C"></path><path d="M53.1464 54.8398C49.4988 56.5478 45.3872 56.9958 41.4573 56.1135C38.2045 55.3923 35.2183 53.7757 32.8361 51.4463C34.3442 52.0713 35.9619 52.3892 37.5943 52.3816C40.417 52.3822 43.1698 51.5046 45.4714 49.8705L44.3032 48.2438C41.1535 50.511 36.821 51.0569 33.402 49.5121C30.0285 47.9927 28.1252 44.7411 28.0033 40.3322V38.9111H26.0017V39.1622V40.3213C25.8853 44.7356 23.9783 47.9909 20.6012 49.5121C17.1822 51.0533 12.8425 50.5147 9.70002 48.2384L8.53366 49.8651C10.8337 51.4998 13.5852 52.3786 16.407 52.3797C18.0395 52.3877 19.6572 52.0698 21.1653 51.4445C18.7838 53.7738 15.7981 55.3905 12.5459 56.1117C8.61601 56.9941 4.50437 56.5461 0.856807 54.838L0.00341797 56.6485C2.68216 57.9059 5.60544 58.5564 8.56459 58.5536C10.0514 58.5541 11.5337 58.39 12.9844 58.0641C17.4358 57.0759 21.4123 54.5879 24.2476 51.0169L24.2604 51.0005C24.9257 50.1277 25.5098 49.1958 26.0054 48.2165V58.5172H28.0069V48.2311C28.5018 49.2055 29.084 50.1331 29.7465 51.0023L29.7592 51.0187C32.5942 54.5892 36.57 57.0772 41.0206 58.066C42.4713 58.3918 43.9536 58.556 45.4404 58.5554C48.4002 58.5582 51.324 57.9077 54.0034 56.6503L53.1464 54.8398Z" fill="#ABFE2C"></path></g><defs><clipPath id="clip0_874_1376"><rect width="54" height="73.193" fill="white" transform="translate(0 6)"></rect></clipPath></defs></svg>
